images_sukapura_svg/cmd/sc_tablenumberformatdialog.svg

<svg viewBox="0 0 16 16" xmlns="http://www.w3.org/2000/svg">/&amp;amp;amp;gt;<path d="m0 5v9.5c-.00038442.276301.22369855.500384.5.5h15c.276301.000384.500384-.223699.5-.5v-9.5h-.998047v9.001953h-14.00390612v-9.001953z" fill="#69696e"/><path d="m1 5h14v9h-14z" fill="#fff"/><path d="m0 1h16v4h-16z" fill="#0a84ff"/><path d="m.50195312 1.0019531c-.27630145-.000384-.50038441.223699-.49999999.5v3.4980469h.99804687 14v-1h-4v-2h4.003906v3h.998047v-3.4980469c.000384-.276301-.223699-.500384-.5-.5zm.49804688.9980469h4v2h-4zm5 0h4v2h-4z" fill="#0040dd"/><path d="m8 4c-1.0907028 0-2 .9092972-2 2-1.0907028 0-2 .9092972-2 2s.9092972 2 2 2v1c-1.0907028 0-2 .909297-2 2s.9092972 2 2 2c0 .017398.0053996.033478.0058594.050781h3.9882812c.0004598-.017303.0058594-.033383.0058594-.050781h1c0 .017398.0054.033478.005859.050781h3.988282c.000459-.017303.005859-.033383.005859-.050781.4198 0 .810215-.13733 1.134766-.365234v-3.269532c-.324551-.227904-.714966-.365234-1.134766-.365234v-1c.4198 0 .810215-.1373303 1.134766-.3652344v-3.2695312c-.324551-.2279041-.714966-.3652344-1.134766-.3652344 0-1.0907028-.909297-2-2-2s-2 .9092972-2 2h-1c0-1.0907028-.9092972-2-2-2zm2 6h1v1h-1z" fill="#fff" fill-opacity=".784314"/><path d="m8 5c-.554 0-1 .446-1 1v1h-1c-.554 0-1 .446-1 1s.446 1 1 1h1v3h-1c-.554 0-1 .446-1 1s.446 1 1 1h1v1c0 .554.446 1 1 1s1-.446 1-1v-1h3v1c0 .554.446 1 1 1s1-.446 1-1v-1h1c.554 0 1-.446 1-1s-.446-1-1-1h-1v-3h1c.554 0 1-.446 1-1s-.446-1-1-1h-1v-1c0-.554-.446-1-1-1s-1 .446-1 1v1h-3v-1c0-.554-.446-1-1-1zm1 4h3v3h-3z" fill="#69696e"/></svg>

<?xml version="1.0" encoding="UTF-8" standalone="no"?>
<svg
   xmlns:dc="http://purl.org/dc/elements/1.1/"
   xmlns:cc="http://creativecommons.org/ns#"
   xmlns:rdf="http://www.w3.org/1999/02/22-rdf-syntax-ns#"
   xmlns:svg="http://www.w3.org/2000/svg"
   xmlns="http://www.w3.org/2000/svg"
   xmlns:sodipodi="http://sodipodi.sourceforge.net/DTD/sodipodi-0.dtd"
   xmlns:inkscape="http://www.inkscape.org/namespaces/inkscape"
   viewBox="0 0 16 16"
   version="1.1"
   id="svg956"
   sodipodi:docname="sc_tablenumberformatdialog.svg"
   inkscape:version="0.92.3 (unknown)"><metadata
   id="metadata962">
  <rdf:RDF>
    <cc:Work
       rdf:about="">
      <dc:format>image/svg+xml</dc:format>
      <dc:type
         rdf:resource="http://purl.org/dc/dcmitype/StillImage" />
      <dc:title></dc:title>
    </cc:Work>
  </rdf:RDF>
</metadata>
<defs
   id="defs960" />
<sodipodi:namedview
   pagecolor="#ffffff"
   bordercolor="#666666"
   borderopacity="1"
   objecttolerance="10"
   gridtolerance="10"
   guidetolerance="10"
   inkscape:pageopacity="0"
   inkscape:pageshadow="2"
   inkscape:window-width="1366"
   inkscape:window-height="699"
   id="namedview958"
   showgrid="true"
   inkscape:zoom="10.429825"
   inkscape:cx="1.7363417"
   inkscape:cy="9.6555534"
   inkscape:window-x="0"
   inkscape:window-y="0"
   inkscape:window-maximized="1"
   inkscape:current-layer="svg956">
  <inkscape:grid
     type="xygrid"
     id="grid1513"
     spacingx="0.5"
     spacingy="0.5"
     empspacing="1" />
</sodipodi:namedview>





     /&amp;amp;gt;
 <path
   d="m0 5v9.5c-.00038442.276301.22369855.500384.5.5h15c.276301.000384.500384-.223699.5-.5v-9.5h-.998047v9.001953h-14.00390612v-9.001953z"
   fill="#69696e"
   id="path946" />
<path
   d="m1 5h14v9h-14z"
   fill="#fff"
   id="path948" />
<path
   d="m0 1h16v4h-16z"
   fill="#0a84ff"
   id="path950" />
<path
   d="m.50195312 1.0019531c-.27630145-.000384-.50038441.223699-.49999999.5v3.4980469h.99804687 14v-1h-4v-2h4.003906v3h.998047v-3.4980469c.000384-.276301-.223699-.500384-.5-.5zm.49804688.9980469h4v2h-4zm5 0h4v2h-4z"
   fill="#0040dd"
   id="path954" />
<path
   style="fill:#ffffff;fill-opacity:0.78431374"
   d="M 8 4 C 6.9092972 4 6 4.9092972 6 6 C 4.9092972 6 4 6.9092972 4 8 C 4 9.0907028 4.9092972 10 6 10 L 6 11 C 4.9092972 11 4 11.909297 4 13 C 4 14.090703 4.9092972 15 6 15 C 6 15.017398 6.0053996 15.033478 6.0058594 15.050781 L 9.9941406 15.050781 C 9.9946004 15.033478 10 15.017398 10 15 L 11 15 C 11 15.017398 11.0054 15.033478 11.005859 15.050781 L 14.994141 15.050781 C 14.9946 15.033478 15 15.017398 15 15 C 15.4198 15 15.810215 14.86267 16.134766 14.634766 L 16.134766 11.365234 C 15.810215 11.13733 15.4198 11 15 11 L 15 10 C 15.4198 10 15.810215 9.8626697 16.134766 9.6347656 L 16.134766 6.3652344 C 15.810215 6.1373303 15.4198 6 15 6 C 15 4.9092972 14.090703 4 13 4 C 11.909297 4 11 4.9092972 11 6 L 10 6 C 10 4.9092972 9.0907028 4 8 4 z M 10 10 L 11 10 L 11 11 L 10 11 L 10 10 z "
   id="path1515" />
<path
   inkscape:connector-curvature="0"
   style="fill:#69696e;fill-opacity:1"
   d="M 8,5 C 7.446,5 7,5.446 7,6 V 7 H 6 C 5.446,7 5,7.446 5,8 5,8.554 5.446,9 6,9 h 1 v 3 H 6 c -0.554,0 -1,0.446 -1,1 0,0.554 0.446,1 1,1 h 1 v 1 c 0,0.554 0.446,1 1,1 0.554,0 1,-0.446 1,-1 v -1 h 3 v 1 c 0,0.554 0.446,1 1,1 0.554,0 1,-0.446 1,-1 v -1 h 1 c 0.554,0 1,-0.446 1,-1 0,-0.554 -0.446,-1 -1,-1 H 14 V 9 h 1 C 15.554,9 16,8.554 16,8 16,7.446 15.554,7 15,7 H 14 V 6 C 14,5.446 13.554,5 13,5 12.446,5 12,5.446 12,6 V 7 H 9 V 6 C 9,5.446 8.554,5 8,5 Z m 1,4 h 3 v 3 H 9 Z"
   id="path6" />
</svg>
